X:1     %Music
T:Roll, Alabama, Roll!
B:S Hugill, 1994, Shanties from the Seven Seas,Mystic Seaport Museum, Conn.
Z:Stan Hugill
F:http://www.folkinfo.org/songs
M:3/4     %Meter
L:1/8     %
K:Bb
F2 F2 |d4 c2 |B2 B2 F2 |A4 G2 |  F6
w:Oh, in eight-een hun-dred an' six-ty-one
c4 cc |c4 d2 |c6 |
w:Roll A-la-ba-ma roll! 
z3 F3 |D4 F2 |B4 c2 |d4 (dd) | (e2d2) 
w:This ship her build-ing was be-_gun_ 
c2 |d4 BB |c4 A2 |B2 z4 |]
w:Oh roll, A-la-ba-ma roll! 